Simply-Cyan-Circles/scalable/apps/amule.svg

<svg xmlns="http://www.w3.org/2000/svg" width="48" height="48" viewBox="0 0 12.7 12.7"><path fill="#5beedc" d="M6.344.073a6.29 6.29 0 0 0-6.29 6.29 6.29 6.29 0 0 0 6.29 6.288 6.29 6.29 0 0 0 6.29-6.289 6.29 6.29 0 0 0-6.29-6.29zm-.018.936a5.407 5.407 0 0 1 5.407 5.407 5.407 5.407 0 0 1-5.407 5.407A5.407 5.407 0 0 1 .92 6.416 5.407 5.407 0 0 1 6.326 1.01zm2.348.81c-.091-.015-.27.162-.415.324-.33.367-.647.775-1.006 1.295-.24.348-.328.455-.402.84a2.604 2.604 0 0 0-.207-.042v.001a2.144 2.144 0 0 0-.912.144c-.432-.668-1.06-1.316-1.82-1.908-.083-.064-.145-.095-.19-.098H3.72c-.32-.024.176 1.268.328 1.6.128.279.452.777.737 1.193-.064.14-.113.297-.139.473-.094.654.035 1.189-.12 1.845-.208.89-.954 1.337-.775 2.195.003.02.002.038.006.06.037.18.133.377.276.6a.731.731 0 0 0 .081.101c.118.132.285.236.483.316a2.948 2.948 0 0 0 .598.17h.047c.547.1 1.132.122 1.472.152.08.008.163.01.245.01.255-.005.513-.05.755-.13h.001l.035-.014a2.47 2.47 0 0 0 .27-.11 1.94 1.94 0 0 0 .696-.546c.148-.193.246-.416.272-.663a1.51 1.51 0 0 0-.14-.831c-.442-.972-.903-2.152-.763-3.345a.921.921 0 0 0-.107-.478 1.058 1.058 0 0 0-.15-.19c.373-.74.633-1.694.844-2.485.09-.341.073-.468.002-.48zM5.498 5.665c.1 0 .206.041.315.135.173.148.42.571.418.8-.005.589-.37.751-.808.882-.437.131-.486-.796-.469-1.128.018-.334.247-.69.544-.689zm1.791.273a.549.549 0 0 1 .14.003c.15.022.32.09.39.164.15.156.19.472.208.64.006.048.006.106.005.167a.263.263 0 0 0-.216-.195.263.263 0 0 0-.298.223.263.263 0 0 0 .223.297.263.263 0 0 0 .282-.165c-.01.113-.024.236-.045.371-.044.29-.873.016-1.032-.134-.16-.15-.237-.268-.197-.54.03-.21.377-.813.54-.831zm-1.607.022a.263.263 0 0 0-.252.225.263.263 0 0 0 .222.298.263.263 0 0 0 .298-.222.263.263 0 0 0-.223-.298.263.263 0 0 0-.045-.003zm2.426 2.005c.21.11.324.298.271.665-.048.335-.636.753-.855 1.19a3.04 3.04 0 0 1 .03-.392c.057-.4.308-1.082.554-1.463zm-3.429.161c.25.444.436.847.593 1.303.074.217.078.447.053.684.026-.56-.964-.812-.851-1.589a.68.68 0 0 1 .205-.398z"/></svg>

<?xml version="1.0" encoding="UTF-8" standalone="no"?>
<svg
   xmlns:dc="http://purl.org/dc/elements/1.1/"
   xmlns:cc="http://creativecommons.org/ns#"
   xmlns:rdf="http://www.w3.org/1999/02/22-rdf-syntax-ns#"
   xmlns:svg="http://www.w3.org/2000/svg"
   xmlns="http://www.w3.org/2000/svg"
   xmlns:sodipodi="http://sodipodi.sourceforge.net/DTD/sodipodi-0.dtd"
   xmlns:inkscape="http://www.inkscape.org/namespaces/inkscape"
   width="48"
   height="48"
   viewBox="0 0 12.7 12.7"
   version="1.1"
   id="svg4"
   sodipodi:docname="amule.svg"
   inkscape:version="0.92.4 (5da689c313, 2019-01-14)">
  <metadata
     id="metadata10">
    <rdf:RDF>
      <cc:Work
         rdf:about="">
        <dc:format>image/svg+xml</dc:format>
        <dc:type
           rdf:resource="http://purl.org/dc/dcmitype/StillImage" />
        <dc:title></dc:title>
      </cc:Work>
    </rdf:RDF>
  </metadata>
  <defs
     id="defs8" />
  <sodipodi:namedview
     pagecolor="#ffffff"
     bordercolor="#666666"
     borderopacity="1"
     objecttolerance="10"
     gridtolerance="10"
     guidetolerance="10"
     inkscape:pageopacity="0"
     inkscape:pageshadow="2"
     inkscape:window-width="1087"
     inkscape:window-height="480"
     id="namedview6"
     showgrid="false"
     inkscape:zoom="4.9166667"
     inkscape:cx="2.1355932"
     inkscape:cy="24"
     inkscape:window-x="0"
     inkscape:window-y="25"
     inkscape:window-maximized="0"
     inkscape:current-layer="svg4" />
  <path
     d="m 6.344,0.073 a 6.29,6.29 0 0 0 -6.29,6.29 6.29,6.29 0 0 0 6.29,6.288 6.29,6.29 0 0 0 6.29,-6.289 6.29,6.29 0 0 0 -6.29,-6.29 z M 6.326,1.009 A 5.407,5.407 0 0 1 11.733,6.416 5.407,5.407 0 0 1 6.326,11.823 5.407,5.407 0 0 1 0.92,6.416 5.407,5.407 0 0 1 6.326,1.01 Z m 2.348,0.81 C 8.583,1.804 8.404,1.981 8.259,2.143 7.929,2.51 7.612,2.918 7.253,3.438 7.013,3.786 6.925,3.893 6.851,4.278 A 2.604,2.604 0 0 0 6.644,4.236 V 4.237 A 2.144,2.144 0 0 0 5.732,4.381 C 5.3,3.713 4.672,3.065 3.912,2.473 3.829,2.409 3.767,2.378 3.722,2.375 H 3.72 C 3.4,2.351 3.896,3.643 4.048,3.975 4.176,4.254 4.5,4.752 4.785,5.168 4.721,5.308 4.672,5.465 4.646,5.641 4.552,6.295 4.681,6.83 4.526,7.486 4.318,8.376 3.572,8.823 3.751,9.681 c 0.003,0.02 0.002,0.038 0.006,0.06 0.037,0.18 0.133,0.377 0.276,0.6 a 0.731,0.731 0 0 0 0.081,0.101 c 0.118,0.132 0.285,0.236 0.483,0.316 a 2.948,2.948 0 0 0 0.598,0.17 h 0.047 c 0.547,0.1 1.132,0.122 1.472,0.152 0.08,0.008 0.163,0.01 0.245,0.01 0.255,-0.005 0.513,-0.05 0.755,-0.13 H 7.715 L 7.75,10.946 A 2.47,2.47 0 0 0 8.02,10.836 1.94,1.94 0 0 0 8.716,10.29 C 8.864,10.097 8.962,9.874 8.988,9.627 A 1.51,1.51 0 0 0 8.848,8.796 C 8.406,7.824 7.945,6.644 8.085,5.451 A 0.921,0.921 0 0 0 7.978,4.973 1.058,1.058 0 0 0 7.828,4.783 C 8.201,4.043 8.461,3.089 8.672,2.298 8.762,1.957 8.745,1.83 8.674,1.818 Z M 5.498,5.665 c 0.1,0 0.206,0.041 0.315,0.135 0.173,0.148 0.42,0.571 0.418,0.8 C 6.226,7.189 5.861,7.351 5.423,7.482 4.986,7.613 4.937,6.686 4.954,6.354 4.972,6.02 5.201,5.664 5.498,5.665 Z m 1.791,0.273 a 0.549,0.549 0 0 1 0.14,0.003 c 0.15,0.022 0.32,0.09 0.39,0.164 0.15,0.156 0.19,0.472 0.208,0.64 0.006,0.048 0.006,0.106 0.005,0.167 A 0.263,0.263 0 0 0 7.816,6.717 0.263,0.263 0 0 0 7.518,6.94 0.263,0.263 0 0 0 7.741,7.237 0.263,0.263 0 0 0 8.023,7.072 C 8.013,7.185 7.999,7.308 7.978,7.443 7.934,7.733 7.105,7.459 6.946,7.309 6.786,7.159 6.709,7.041 6.749,6.769 6.779,6.559 7.126,5.956 7.289,5.938 Z M 5.682,5.96 A 0.263,0.263 0 0 0 5.43,6.185 0.263,0.263 0 0 0 5.652,6.483 0.263,0.263 0 0 0 5.95,6.261 0.263,0.263 0 0 0 5.727,5.963 0.263,0.263 0 0 0 5.682,5.96 Z M 8.108,7.965 C 8.318,8.075 8.432,8.263 8.379,8.63 8.331,8.965 7.743,9.383 7.524,9.82 A 3.04,3.04 0 0 1 7.554,9.428 C 7.611,9.028 7.862,8.346 8.108,7.965 Z M 4.679,8.126 C 4.929,8.57 5.115,8.973 5.272,9.429 5.346,9.646 5.35,9.876 5.325,10.113 5.351,9.553 4.361,9.301 4.474,8.524 A 0.68,0.68 0 0 1 4.679,8.126 Z"
     id="path2"
     inkscape:connector-curvature="0"
     style="fill:#5beedc" />
</svg>
